X:1
T:G Major Oliver Holden, 1803
T:Anne Steele, 1717-1778 (Published 1780) 86. 86. (C. M.)
T:Vernal Day No copyright. Transcribed from The Charlestown Collection, 1803.
%%score [ 1 2 3 4 ]
L:1/8
M:4/4
K:G
V:1 treble nm="Treble" snm="Tr."
V:2 treble nm="Counter" snm="C."
V:3 treble-8 nm="Tenor" snm="T."
V:4 bass nm="Bass" snm="B."
V:1
 B4 | (G2 F2) (G2 A2) | B6 G2 | (G2 F2) (c2 B2) | B6 B2 | (A2 G2) (F2 G2) | (A3 B c2) c2 | %7
w: |||||||
 (B4 A4) | B4 G2 F2 | (G3 A B2) G2 | (G2 F2) (G2 A2) | B8 | G4 G2 G2 | (A2 B2) c4 | B8 | z8 | z8 | %17
w: ||||||||||
 z4 z2 B2 | c2 c2 cB AG | (G4 F4) | A4 F2 A2 | F2 D2 F2 A2 | G4 B4 | c2 B2 A2 G2 | d6 A2 | %25
w: |||Soft mu- sic|hails the love- ly|spring, And|woods and fields re-|joice, *|
 (G2 B2 cA) G2 | d4 c4 | B8 |] %28
w: |||
V:2
 D4 | D4 D4 | G6 G2 | D4 D4 | D6 D2 | D4 D4 | E6 E2 | D8 | D4 D2 D2 | D6 CE | D4 D4 | D8 | %12
w: 1.~When|ver- dure|clothes the|fer- tile|vale, And|blos- soms|deck the|spray,|And fra- grance|breathes in *|eve- ry|gale,|
 G4 G2 G2 | D4 D4 | D8 | z8 | z8 | z4 z2 F2 | G2 G2 G2 E2 | D8 | z8 | z8 | z8 | z8 | z4 z2 [DF]2 | %25
w: How sweet the|ver- nal|day!|||'Tis|na- ture's cheer- ful|voice:|||||And|
 G4 G4 | F4 F4 | G8 |] %28
w: woods and|fields re-|joice.|
V:3
 G4 | (B2 A2) (B2 c2) | d6 ec | (B2 A2) (G2 F2) | G6 G2 | (A2 B2) (A2 B2) | (c3 d e2) G2 | %7
w: |||||||
 (G4 F4) | G4 B2 A2 | (B3 c d2) ec | (B2 A2) (G2 F2) | G8 | d4 BA Bd | (c2 B2) A4 | G8 | B4 BA GA | %16
w: ||||||||Hark, how * the *|
 B2 e2 BA GA | (G3 A B2) d2 | g2 e2 ed cB | (B4 A4) | z8 | z8 | z8 | z8 | z4 z2 c2 | %25
w: feath- ered war- * blers *|sing!~ _ _ _|_ _ _ _ _ _|||||||
 (B2 d2 ec) Bd | (c2 B2) A4 | G8 |] %28
w: |||
V:4
 G,4 | G,4 G,4 | G,6 C2 | D4 D,4 | G,6 G,2 | D,4 D,4 | C,6 C,2 | D,8 | G,4 G,2 D,2 | G,6 C2 | %10
w: ||||||||||
 D4 D,4 | G,8 | B,4 G,2 B,,2 | D,4 D,4 | G,8 | E,4 E,2 E,2 | E,2 E,2 E,2 E,2 | E,6 E,2 | %18
w: ||||||||
 C,2 C,2 C,2 C,2 | D,8 | D,4 D,2 D,2 | D,2 D,2 D,2 D,2 | G,4 G,4 | A,2 G,2 F,2 E,2 | D,6 D,2 | %25
w: ||Soft mu- sic|hails the love- ly|spring, And|woods and fields re-|joice, *|
 G,4 G,4 | D,4 D,4 | G,,8 |] %28
w: |||

